**kern	**kern	**kern
*staff3	*staff2	*staff1
*tb32	*tb32	*tb32
*clefF4	*clefF4	*clefG2
*k[f#c#g#]	*k[f#c#g#]	*k[f#c#g#]
*M2/4	*M2/4	*M2/4
*A:	*A:	*A:
8r	8r	8e
=359	=359	=359
*M2/4	*M2/4	*M2/4
8AA 8C# 8E 8A	2r	16aLL
.	.	16b
8r	.	16cc#
.	.	16ddJJ
4r	.	16eeLL
.	.	16ff#
.	.	16gg#
.	.	16aaJJ
=360	=360	=360
(16ELL	2r	(16bbLL
16G#	.	16gg#
16B	.	16ee
16dJJ	.	16ddJJ
16eLL	.	16bLL
16d	.	16g#
16B	.	16ee
16G#JJ	.	16ddJJ
=361	=361	=361
8A)	2r	16cc#LL)
.	.	16b
8r	.	16cc#
.	.	16ddJJ
4r	.	16eeLL
.	.	16ff#
.	.	16gg#
.	.	16aaJJ
=362	=362	=362
(16ELL	2r	(16bbLL
16G#	.	16gg#
16B	.	16ee
16dJJ	.	16ddJJ
16eLL	.	16bLL
16d	.	16g#
16B	.	16ee
16G#JJ	.	16ddJJ
=363	=363	=363
8AL)	2r	16cc#LL)
.	.	16b
8F#J	.	16a
.	.	16cc#JJ
8DL	.	16bLL
.	.	16dd
8EJ	.	16g#
.	.	16bJJ
=364	=364	=364
8AA	2r	16aLL
.	.	(16aa
8r	.	16gg#
.	.	16ff#JJ
16r	.	16eeLL
16f#LL	.	16dd
16e	.	16cc#
16d#JJ	.	16bJJ
=365	=365	=365
16eLL	2r	16cc#LL
16d	.	16dd
16c#	.	16ee
16BJJ	.	16ff#JJ
16c#LL	.	16eeLL
16d	.	16dd)
16e	.	16cc#'
16EJJ	.	16b'JJ
=366	=366	=366
8A	2r	16aLL
.	.	(16aa
8r	.	16gg#
.	.	16ff#JJ
16r	.	16eeLL
16F#LL	.	16dd
16E	.	16cc#
16D#JJ	.	16bJJ
=367	=367	=367
16ELL	2r	16cc#LL
16D	.	16dd
16C#	.	16ee
16BBJJ	.	16ff#JJ
16C#LL	.	16eeLL
16D	.	16dd)
16E	.	16cc#'
16EEJJ	.	16b'JJ
=368	=368	=368
16AALL	4.r	4a
16EE	.	.
16CC#	.	.
16EEJJ	.	.
8AAA	.	8r
*||	*||	*||
*-	*-	*-
